!!!!SEGMENT: pl-sa--481-a-viii-121--020_anonim--rondo.krn
!!!cenid: 18xx:391
!!!COM: Anonim
!!!COM-rismID: pe30004985
!!!CDT:
!!!CNT:
!!!OTL: Rondo
!!!PDT:
!!!AGN: Secular
!!!SMS-siglum: PL-SA
!!!SMS-shelfmark: 481/A VIII 121
!!!SMS-shelfwork: 020 W
!!!SMS-variant:
!!!SMS-altvar:
!!!NIFC-rismSourceID: 1001070671
!!!NIFC-rismChildID: 1001070671
!!!NIFC-islandoraID:
!!!URL-pdf-islandora:
!!!URL-scan: https://bc.bdsandomierz.pl/dlibra/publication/1212/edition/1171/content @EN{Scan in the Sandomierz Diocese Digital Library} @PL{Skany w portalu Cyfrowa Biblioteka Diecezjalna w Sandomierzu}
!!!ONB-nifc: Str. 15-18, 29-31. Uwaga: kontynuacja na stronach 29-31
!!!AIN: 1 piano
!!!key:
**kern	**kern
*part1	*part1
*staff2	*staff1
*Ipiano	*Iempty
*I"Piano	*
*I'P-no	*
*clefF4	*clefG2
*k[f#]	*k[f#]
*G:	*G:
*M2/4	*M2/4
!	!LO:TX:a:t=Rondo All(egr)o:rj
!	!LO:N:vis=8
8r	16r
.	16dd\LL
8r	16gg\
.	16bb\JJ
=1	=1
.	16qqdd/
8G\L 8B	8.ddd\L
8d\J	.
.	16bb\Jk
*rep	*
8G\L 8B	16gg\LL
.	16ff#\
8d\J	16gg\
.	16bb\JJ
*Xrep	*
=2	=2
8A\L 8c	16aa\LL
.	16ff#\J
8d\J	8dd\J
!	!LO:N:vis=8
*rep	*
8A\L 8c	16r
.	16dd\LL
8d\J	16ee\
.	16ff#\JJ
*Xrep	*
=3	=3
.	32qqaa/
8G\L 8B	16gg\LL
.	16ff#\
8d\J	16gg\
.	16aa\JJ
*rep	*
8G\L 8B	16bb\LL
.	16aa\
8d\J	16ccc\
.	16bb\JJ
*Xrep	*
=4	=4
*^	*
8G/L	4D\	16bb\LL
.	.	16aa\J
8F#/J	.	8aa\J
!	!	!LO:N:vis=8
4d\	4ryy	16r
.	.	16dd\LL
.	.	16gg\
.	.	16bb\JJ
*v	*v	*
=5	=5
.	16qqdd/
8G\L 8B	8.ddd\L
8d\J	.
.	16bb\Jk
*rep	*
8G\L 8B	16gg\LL
.	16ff#\
8d\J	16gg\
.	16bb\JJ
*Xrep	*
=6	=6
8A\L 8c	16aa\LL
.	16ff#\J
8d\J	8dd\J
!	!LO:N:vis=8
*rep	*
8A\L 8c	16r
.	16dd\LL
8d\J	16ee\
.	16ff#\JJ
*Xrep	*
!!LO:LB:g=original
=7	=7
8A\L	16gg\LL
.	16ee\
8c\J	16ccc\
.	16aa\JJ
!LO:TX:a:t=P:problem=mixed beam	!
8d\L	16bb\LL
.	16gg\
8D/J	16aa\
.	16ff#\JJ
=8	=8
8r	16aa\LL
.	16gg\J
8G\	8gg\J
!	!LO:N:vis=8
4GG/	16r
.	16d/LL
.	16g/
.	16b/JJ
=9	=9
.	16qqd/
16GG/LL	8.dd\L
16D/	.
16BB/	.
16D/JJ	16b\Jk
*rep	*
16GG/LL	16g/LL
16D/	16f#/
16BB/	16g/
16D/JJ	16b/JJ
*Xrep	*
=10	=10
16AA/LL	16a/LL
16D/	16f#/J
16C/	8d/J
16D/JJ	.
!	!LO:N:vis=8
*rep	*
16AA/LL	16r
16D/	16d/LL
16C/	16e/
16D/JJ	16f#/JJ
*Xrep	*
=11	=11
.	16qqa/
16GG/LL	16g/LL
16D/	16f#/
16BB/	16g/
16D/JJ	16a/JJ
*rep	*
16GG/LL	16b/LL
16D/	16g/
16BB/	16cc/
16D/JJ	16b/JJ
*Xrep	*
=12	=12
16FF#/LL	16b/LL
16D/	16a/J
16AA/	8a/J
16D/JJ	.
!	!LO:N:vis=8
4DD/	16r
.	16d/LL
.	16f#/
.	16a/JJ
=13	=13
.	16qqd/
16GG/LL	8.dd\L
16D/	.
16BB/	.
16D/JJ	16b\Jk
*rep	*
.	16qqa/
16GG/LL	16g/LL
16D/	16f#/
16BB/	16g/
16D/JJ	16b/JJ
*Xrep	*
!!LO:LB:g=original
=14	=14
16AA/LL	16a/LL
16D/	16f#/J
16C/	8d/J
16D/JJ	.
!	!LO:N:vis=8
*rep	*
16AA/LL	16r
16D/	16d/LL
16C/	16e/
16D/JJ	16f#/JJ
*Xrep	*
=15	=15
8BB/L	16g/LL
.	16e/
8C/J	16cc/
.	16a/JJ
8D/L	16b/LL
.	16g/
8DD/J	16a/
.	16f#/JJ
=16	=16
8r	16a/LL
.	16g/J
8G\	8g/J
!	!LO:N:vis=8
4GG/	16r
.	16gg\LL
.	16bb\
.	16ccc\JJ
=17	=17
8G\L 8B	8.ddd\L
8d\J	.
.	16bb\Jk
*rep	*
8G\L 8B	16ddd\LL
.	16bb\
8d\J	16eee\
.	16ddd\JJ
*Xrep	*
=18	=18
8A\L 8c	16ddd\LL
.	16ccc\J
8d\J	8ccc\J
!	!LO:N:vis=8
*rep	*
8A\L 8c	16r
.	16aa\LL
8d\J	16bb\
.	16ccc\JJ
*Xrep	*
=19	=19
8G\L 8B	16.ddd\LL
.	32bb\K
8d\J	16ddd\
.	16bb\JJ
8c\L	16eee\LL
.	16ccc\
8c#X\J	16bb\
.	16aa\JJ
=20	=20
4d\	16gg\LL
.	16ff#\
.	16eee\
.	16ddd\JJ
4D\	16ddd\LL
.	16ccc\
.	16bb\
.	16ccc\JJ
!!LO:LB:g=original
=21	=21
8G\L 8B	8.ddd\L
8d\J	.
.	16gg\Jk
*rep	*
8G\L 8B	16gg\LL
.	16ff#\
8d\J	16gg\
.	16bb\JJ
*Xrep	*
=22	=22
8A\L 8c	16aa\LL
.	16ff#\J
8d\J	8dd\J
!	!LO:N:vis=8
*rep	*
8A\L 8c	16r
.	16dd\LL
8d\J	16ee\
.	16ff#\JJ
*Xrep	*
=23	=23
8B\L	16gg\LL
.	16ee\
8c\J	16ccc\
.	16aa\JJ
!LO:TX:a:t=P:problem=mixed beam	!
8d\L	16bb\LL
.	16gg\
8D/J	16aa\
.	16ff#\JJ
=24	=24
8r	16aa\LL
.	16gg\J
8G\	8gg\J
!	!LO:N:vis=8
4GG/	16r
.	16g/LL
.	16b/
.	16dd/JJ
=25	=25
16G\LL	8.dd\L
16d\	.
16B\	.
16d\JJ	16b\Jk
*rep	*
16G\LL	16dd\LL
16d\	16b\
16B\	16ee\
16d\JJ	16dd\JJ
*Xrep	*
=26	=26
16A\LL	16dd\LL
16d\	16cc\J
16c\	8cc\J
16d\JJ	.
!	!LO:N:vis=8
16F#\LL	16r
16d\	16a/LL
16A\	16b/
16d\JJ	16cc/JJ
=27	=27
8G\L	16dd\LL
.	16b\
8B\J	16dd\
.	16b\JJ
8c\L	16ee\LL
.	16cc\
8c#X\J	16b\
.	16a\JJ
=28	=28
4d\	16g\LL
.	16f#\
.	16ee\
.	16dd\JJ
!	!LO:N:vis=8
4D\	16dd\LL
!	!LO:N:vis=8
.	16cc\
!	!LO:N:vis=8
.	16b\
!	!LO:N:vis=8
.	16cc\JJ
!!LO:LB:g=original
=29	=29
16GG/LL	8.dd\L
16D/	.
16BB/	.
16D/JJ	16b\Jk
*rep	*
16GG/LL	16g/LL
16D/	16f#/
16BB/	16g/
16D/JJ	16b/JJ
*Xrep	*
=30	=30
16AA/LL	16a/LL
16D/	16f#/J
16C/	8d/J
16D/JJ	.
!	!LO:N:vis=8
*rep	*
16AA/LL	16r
16D/	16d/LL
16C/	16e/
16D/JJ	16f#/JJ
*Xrep	*
=31	=31
8BB/L	16g/LL
.	16e/
8C/J	16cc/
.	16a/JJ
8D/L	16b/LL
.	16g/
8DD/J	16a/
.	16f#/JJ
=32	=32
8r	16a/LL
.	16g/J
8G\	8g/J
!	!LO:N:vis=8
4GG/	16r
.	16dd\LL
.	16gg\
.	16bb\JJ
=33	=33
8d\L	16bb\LL
.	16aa\
8D\J	16gg\
.	16ff#\JJ
4G\	16gg\LL
.	16gg\
.	16bb\
.	16ddd\JJ
=34	=34
8d\L	16bb\LL 16ddd
.	16aa\ 16ccc
8D\J	16gg\ 16bb
.	16ff#\JJ 16aa
!	!LO:N:vis=16
4G\	8gg\L 8bb
.	16gg\L 16bb
.	16aa\JJ 16ccc
=35	=35
4GG/ 4G	16bb\LL 16ddd
.	16gg\ 16bb
.	16bb\ 16ddd
.	16gg\JJ 16bb
4GG/ 4G	16gg\LL 16bb
.	16bb\ 16ddd
.	16ccc\ 16eee
.	16bb\JJ 16ddd
=36	=36
8d\L	8bb\L 8ddd
8D\J	8aa\J 8ccc
!LO:TX:a:t=P:problem=mixed beam	!
8G\L	4gg\ 4bb
8GG/J	.
!!LO:PB:g=original
=37	=37
*	*Xtuplet
8r	24ddd\LL
.	24ccc\
.	24aa\JJ
8F#\L	24ddd\LL
.	24ccc\
.	24aa\JJ
8A\	24ddd\LL
.	24ccc\
.	24aa\JJ
8F#\J	24ddd\LL
.	24ccc\
.	24aa\JJ
=38	=38
4G\	24bb\LL
.	24ddd\
.	24ccc\JJ
.	24bb\LL
.	24aa\
.	24gg\JJ
4GG/	24ff#\LL
.	24dd\
.	24cc\JJ
.	24b\LL
.	24a\
.	24g\JJ
=39	=39
8r	24dd\LL
.	24cc\
.	24a\JJ
8F#\L	24dd\LL
.	24cc\
.	24a\JJ
8A\	24dd\LL
.	24cc\
.	24a\JJ
8F#\J	24dd\LL
.	24cc\
.	24a\JJ
=40	=40
4G\	24b\LL
.	24dd\
.	24cc\JJ
.	24b\LL
.	24dd\
.	24cc\JJ
4GG/	24b\LL
.	24cc\
.	24dd\JJ
.	24ee\LL
.	24ff#\
.	24gg\JJ
=41	=41
.	16qqdd/
8r	24ddd\LL
.	24ccc\
.	24aa\JJ
8F#\L	24ddd\LL
.	24ccc\
.	24aa\JJ
8A\	24ddd\LL
.	24ccc\
.	24aa\JJ
8F#\J	24ddd\LL
.	24ccc\
.	24aa\JJ
!!LO:LB:g=original
=42	=42
4G\	24bb\LL
.	24ddd\
.	24ccc\JJ
.	24bb\LL
.	24aa\
.	24gg\JJ
4GG/	24ff#\LL
.	24dd\
.	24cc\JJ
.	24b\LL
.	24a\
.	24g\JJ
=43	=43
4C/ 4G/	16ee\LL
.	16cc\
.	16gg\
.	16ee\JJ
4C/ 4G/	16cc#X\LL
.	16dd\J
.	8dd\J
=44	=44
8A\L	16ccn\LL
.	16dd\
8F#X\J	16ee\
.	16dd\JJ
!LO:TX:a:t=P:problem=mixed beam	!
8G\L	16a#X/LL
.	16b/J
8GG/J	8b/J
=45	=45
4C/ 4E	16an/LL
.	16b/
.	16cc/
.	16dd/JJ
8r	16ee\LL
.	16cc\
8C#X/ 8E	16b\
.	16a\JJ
=46	=46
4D\	16g/LL
.	16f#/
.	16g/
.	16f#/JJ 16a
8F#\L	4f#/ 4a
8A\J	.
=47	=47
8r	4.ff#\ 4.aa
8d\	.
4D/	.
.	24ccc#X\LL
.	24ddd\
.	24bb\JJ
=48	=48
!	!LO:TX:a:t=P:problem=mixed beam
4DD/ 4D	8aa\L
.	8A/ 8d/
4DD/ 4D	8d/ 8f#/
.	8f#/J 8a/
=49	=49
.	16qqf#/ 16qqa
!LO:TX:a:t=P:problem=mixed beam	!
8A\L	4e/ 4g
8AA/J	.
.	16qqee/
4r	8.eee\L
.	16ddd\Jk
!!LO:LB:g=original
=50	=50
8r	16ddd\LL
.	16ccc#X\
8F#\L	16ccc#\
.	16bb\JJ
8B\	16bb\LL
.	16aa\
8c#X\J	16aa\
.	16gg\JJ
=51	=51
4d\	8ff#\L
.	8ff#\ 4aaJ
*	*rscale:1/2
4D\	12ccc#X\LL
.	12ddd\
.	12bb\JJ
*	*rscale:1
=52	=52
!	!LO:TX:a:t=P:problem=mixed beam
4DD/ 4D	8aa\L
.	8A/ 8d/
4DD/ 4D	8d/ 8f#/
.	8f#/J 8a/
=53	=53
.	16qqf#/ 16qqa
!LO:TX:a:t=P:problem=mixed beam	!
8A\L	4e/ 4g
8AA/J	.
.	16qqee/
4r	8.eee\L
.	16ddd\Jk
=54	=54
8r	16ddd\LL
.	16ccc#X\
8F#\L	16ccc#\
.	16bb\JJ
8B\	16bb\LL
.	16aa\
8c#X\J	16aa\
.	16gg\JJ
=55	=55
4d\	24ff#\LL
.	24dd\
.	24ff#\JJ
.	24aa\LL
.	24ff#\
.	24aa\JJ
8G\L	24bb\LL
.	24gg\
.	24ee\JJ
8A\J	24gg\LL
.	24ee\
.	24cc#X\JJ
=56	=56
4D\	24ff#\LL
.	24dd\
.	24ee\JJ
.	24ff#\LL
.	24gg\
.	24aa\JJ
4G\	24bb\LL
.	24ddd\
.	24ccc\JJ
.	24bb\LL
.	24aa\
.	24gg\JJ
!!LO:LB:g=original
=57	=57
4A\	24ff#\LL
.	24aa\
.	24ff#\JJ
.	24ff#\LL
.	24ee\
.	24dd\JJ
4AA/	4ee\
=58	=58
8r	4ee#X\
8D/	.
4DD/	16ff#\LL
.	16dd\
.	16ff#\
.	16gg#X\JJ
=59	=59
8r	8.aa\L
8C#X/L 8E/ 8A/	.
!	!LO:SIC:s=gg#
.	16gg\Jk
8C#/ 8E 8A	16aa\LL
.	16bb\
8C#/J 8E 8A	16ee\
.	16ff#\JJ
=60	=60
.	16qqaa/
*^	*
8rBB	4ryy	8gg\L
8D/ 8F# 8A	.	8ff#\J
!	!	!LO:N:vis=8
4F#/ 4A	4D\	16r
.	.	16dd\LL
.	.	16ff#\
.	.	16gg#X\JJ
*v	*v	*
=61	=61
8r	8.aa\L
8C#X/L 8E 8A	.
.	16gg#X\Jk
8C#/ 8E 8A	16aa\LL
.	16bb\
8C#/J 8E 8A	16ee\
.	16ff#\JJ
=62	=62
.	4qqaa/
8r	8ggn\L
8D/ 8F# 8A	8ff#\J
!	!LO:N:vis=8
4D/ 4F# 4A	16r
.	16aa\LL
.	16bb\
.	16ccc\JJ
=63	=63
4FF#/ 4F#	16ddd\LL
.	16ccc\
.	16ddd\
.	16aa#X\JJ
8GG/L 8G	16bb\LL
.	16aa#\
8AA/J 8A	16bb\
.	16ff#\JJ
=64	=64
4BB/ 4B	16gg\LL
.	16ff#\
.	16gg\
.	16aa\JJ
4GG/ 4G	16bb\LL
.	16ccc\
.	16ddd\
.	16bb\JJ
=65	=65
4FF#/ 4F#	16aa\LL
.	16ddd\
.	16ccc#X\
.	16cccn\JJ
4r	16bb\LL
.	16bb-X\
.	16aa\
.	16gg#X\JJ
!!LO:LB:g=original
=66	=66
8F#\L	16aa\LL
.	16ddd\
8G\J	16bb\
.	16ggn\JJ
!LO:TX:a:t=P:problem=mixed beam	!
8A\L	8ff#\L
8AA/J	8ee\J
=67	=67
4D\	16dd\LL
.	16ddd\
.	16dd\
.	16ee\JJ
.	16qqgg/
4DD/	16ff#\LL
.	16ee\
.	16ff#\
.	16gg\JJ
=68	=68
4D\ 4A 4cn	16aa\LL
.	16bb\
.	16ccc\
.	16ddd\JJ
4r	16eee\LL
.	16ddd#X\
.	16eee\
.	16ddd#\JJ
=69	=69
2r	16eee\LL
.	16ddd\
.	16eee\
.	16ddd\JJ
.	16eee\LL
.	16ccc\
.	16bb\
.	16gg\JJ
=70	=70
.	16qqdd/
8G\L 8B	8.ddd\L
8d\J	.
.	16bb\Jk
.	16qqaa
*rep	*
8G\L 8B	16gg\LL
.	16ff#\
8d\J	16gg\
.	16bb\JJ
*Xrep	*
=71	=71
8A\L 8c	16aa\LL
.	16ff#\J
8d\J	8dd\J
!	!LO:N:vis=8
*rep	*
8A\L 8c	16r
.	16dd\LL
8d\J	16ee\
.	16ff#\JJ
*Xrep	*
=72	=72
.	16qqaa/
8G\L 8B	16ff#\LL
.	16ee\
8d\J	16ff#\
.	16gg\JJ
*rep	*
8G\L 8B	16bb\LL
.	16gg\
8d\J	16ccc\
.	16bb\JJ
*Xrep	*
=73	=73
*^	*
8G/L	4D\	16bb\LL
.	.	16aa\J
8F#/J	.	8aa\J
!	!	!LO:N:vis=8
4d\	4ryy	16r
.	.	16dd\LL
.	.	16gg\
.	.	16bb\JJ
*v	*v	*
!!LO:PB:g=original
=74	=74
.	16qqdd/
8G\L 8B	8.ddd\L
8d\J	.
.	16bb\Jk
*rep	*
.	4qqaa/
8G\L 8B	16gg\LL
.	16ff#\
8d\J	16gg\
.	16bb\JJ
*Xrep	*
=75	=75
8A\L 8c	16aa\LL
.	16ff#\J
8d\J	8dd\J
!	!LO:N:vis=8
*rep	*
8A\L 8c	16r
.	16dd\LL
8d\J	16ee\
.	16ff#\JJ
*Xrep	*
=76	=76
8B\L	16gg\LL
.	16ee\
8c\J	16ccc\
.	16aa\JJ
!LO:TX:a:t=P:problem=mixed beam	!
8d\L	16bb\LL
.	16gg\
8D/J	16aa\
.	16ff#\JJ
=77	=77
8r	16aa\LL
.	16gg\J
8G\	8gg\J
!	!LO:N:vis=8
4GG/	16r
.	16d/LL
.	16g/
.	16b/JJ
=78	=78
.	16qqd/
16GG/LL	8.dd\L
16D/	.
16BB/	.
16D/JJ	16b\Jk
*rep	*
16GG/LL	16g/LL
16D/	16f#/
16BB/	16g/
16D/JJ	16b/JJ
*Xrep	*
=79	=79
16AA/LL	16a/LL
16D/	16f#/J
16C/	8d/J
16D/JJ	.
!	!LO:N:vis=8
*rep	*
16AA/LL	16r
16D/	16d/LL
16C/	16e/
16D/JJ	16f#/JJ
*Xrep	*
=80	=80
16GG/LL	16g/LL
16D/	16f#/
16BB/	16g/
16D/JJ	16a/JJ
*rep	*
16GG/LL	16b\LL
16D/	16g\
16BB/	16cc\
16D/JJ	16b\JJ
*Xrep	*
=81	=81
16FF#/LL	16b/LL
16D/	16a/J
16AA/	8a/J
16D/JJ	.
!	!LO:N:vis=8
4DD/	16r
.	16d/LL
.	16g/
.	16b/JJ
=82	=82
.	16qqd/
16GG/LL	8.dd\L
16D/	.
16BB/	.
16D/JJ	16b\Jk
*rep	*
16GG/LL	16g/LL
16D/	16f#/
16BB/	16g/
16D/JJ	16b/JJ
*Xrep	*
!!LO:LB:g=original
=83	=83
16AA/LL	16a/LL
16D/	16f#/J
16C/	8d/J
16D/JJ	.
!	!LO:N:vis=8
*rep	*
16AA/LL	16r
16D/	16d/LL
16C/	16e/
16D/JJ	16f#/JJ
*Xrep	*
=84	=84
8BB/L	16g/LL
.	16e/
8C/J	16cc/
.	16a/JJ
8D/L	16b/LL
.	16g/
8DD/J	16a/
.	16f#/JJ
=85	=85
8r	16a/LL
.	16g/J
8G\	8g/J
4GG/	4r
=86	=86
!LO:TX:a:t=P:problem=mixed beam	!
16GG/LL	8.gg\L
16G\	.
16F#X\	.
16G\JJ	16dd\Jk
*rep	*
!LO:TX:a:t=P:problem=mixed beam	!
16GG/LL	8.bb-X\L
16G\	.
16F#X\	.
16G\JJ	16gg\Jk
*Xrep	*
=87	=87
*rep	*
!LO:TX:a:t=P:problem=mixed beam	!
16GG/LL	8dd\ 8ddd
16G\	.
16F#X\	4dd\ 4ddd
16G\JJ	.
*Xrep	*
*rep	*
!LO:TX:a:t=P:problem=mixed beam	!
16GG/LL	.
16G\	.
16F#X\	16ccc\LL
16G\JJ	16bb\JJ
*Xrep	*
=88	=88
4C/ 4G	16aa\LL
.	16ccc\
.	16eee\
.	16ccc\JJ
8D\L	16ccc\LL
.	16bb\
8F#X\J	16bb\
.	16aa\JJ
=89	=89
4G\	16ccc\LL
.	16bb\
.	16aa\
.	16bb\JJ
*clefG2	*
!LO:N:vis=8	!LO:TX:a:t=P:problem=brak laski
16r	4gg\
!LO:TX:a:t=P:problem=16\left	!
16g/LL	.
16f#/	.
16e/JJ	.
=90	=90
!	!LO:TX:a:t=P:problem=kasownik fn przed przednutką
.	16qqee/
16d/LL	8.ffn\L
16b/	.
16f#/	.
16b/JJ	16dd\Jk
*rep	*
16d/LL	16bb-X\LL
16b/	16aa\
16f#/	16gg\
16b/JJ	16ff\JJ
*Xrep	*
=91	=91
16c/LL	16ff#\LL
16a/	16een\J
16e/	8ee-X\J
16a/JJ	.
!	!LO:N:vis=8
*rep	*
16c/LL	16r
16a/	16cc\LL
16e/	16dd\
16a/JJ	16ee-\JJ
*Xrep	*
!!LO:LB:g=original
=92	=92
4B/	16ff#\LL
.	16dd\
.	16gg\
.	16ff#\JJ
*clefF4	*
!	!LO:SIC:s=E-
8E\L	16ee\LL
.	16dd\
8En\J	16cc\
.	16b\JJ
=93	=93
*2\right	*
2F#\	16a\LL
.	16cc\
.	16b\
.	16dd\JJ
.	16cc\LL
.	16dd\
.	16ee\
.	16een\JJ
=94	=94
8r	24ff#\LL
.	24ee\
.	24cc\JJ
8F#\L	24a\LL
.	24cc\
.	24ee\JJ
8A\	24ff#\LL
.	24ee\
.	24cc\JJ
8F#\J	24ff#\LL
.	24ee\
.	24cc\JJ
=95	=95
4B\	24f#\LL
.	24dd\
.	24b\JJ
.	24ff#\LL
.	24dd\
.	24b\JJ
4BB/	24f#\LL
.	24dd\
.	24b\JJ
.	24ff#\LL
.	24dd\
.	24b\JJ
=96	=96
8r	24ff#\LL
.	24ee\
.	24cc\JJ
8F#\L	24a\LL
.	24cc\
.	24ee\JJ
8A\	24ff#\LL
.	24ee\
.	24cc\JJ
8F#\J	24ff#\LL
.	24ee\
.	24cc\JJ
=97	=97
4B\	24f#\LL
.	24dd\
.	24b\JJ
.	24ff#\LL
.	24dd\
.	24b\JJ
4BB/	24f#\LL
.	24dd\
.	24b\JJ
.	24ff#\LL
.	24dd\
.	24b\JJ
!!LO:LB:g=original
=98	=98
!	!LO:N:vis=12
8E\L	24r
!	!LO:TX:a:t=P:problem=mixed beam
.	24g/LL
.	24ff#\JJ
!	!LO:N:vis=12
8En\J	24r
!	!LO:TX:a:t=P:problem=mixed beam
.	24b/LL
.	24bb\JJ
!	!LO:N:vis=12
8F#\L	24r
!	!LO:TX:a:t=P:problem=mixed beam
.	24a/LL
.	24aa\JJ
!	!LO:N:vis=12
8A\J	24r
.	24cc\LL
.	24ccc\JJ
=99	=99
4B\	16bb\LL
.	16dd\
.	16ee\
.	16ff#\JJ
4r	16gg\LL
.	16aa\
.	16bb\
.	16ccc\JJ
=100	=100
4r	16ddd\LL
.	16eee\J
.	8eee\J
!	!LO:TX:a:t=P:problem=mixed beam
8r	8fff#\L
8DD/ 8D	8d/J
=101	=101
4.EEn/ 4.En	8e\L
.	8g\ 8gg
.	8a\ 8aa
8EE/ 8E	8b\J 8bb
=102	=102
!	!LO:N:vis=12
4FF#/ 4F#	24r
.	24ff#\LL
.	24dd\JJ
!	!LO:N:vis=12
.	24r
.	24bb\LL
.	24b\JJ
16F#\LL	4cc\
16c\	.
16A\	.
16c\JJ	.
=103	=103
!LO:N:vis=8	!
16r	4b\
16B\LL	.
16F#\	.
16D\JJ	.
4BB/	4r
=104	=104
!LO:TX:a:t=P:problem=mixed beam	!
16BB/LL	8.ff#X\L 8.aa
16d\	.
16c#X\	.
16d\JJ	16dd\Jk
*rep	*
!LO:TX:a:t=P:problem=mixed beam	!
16BB/LL	8.ddd\L
16d\	.
16c#\	.
16d\JJ	16dd\Jk
*Xrep	*
=105	=105
*rep	*
!LO:TX:a:t=P:problem=mixed beam	!
16BB/LL	8.gg\L 8.bb
16d\	.
16c#X\	.
16d\JJ	16dd\Jk
*Xrep	*
*rep	*
!LO:TX:a:t=P:problem=mixed beam	!
16BB/LL	8.ddd\L
16d\	.
16c#\	.
16d\JJ	16dd\Jk
*Xrep	*
!!LO:LB:g=original
=106	=106
!LO:TX:a:t=P:problem=mixed beam	!
8c\L	16ddd\LL
.	16ccc\
8C/J	16ccc\
.	16bb\JJ
!LO:TX:a:t=P:problem=mixed beam	!
8A\L	16bb\LL
.	16aa\
8C#X/J	16aa\
.	16gg\JJ
=107	=107
!LO:N:vis=8	!
16r	4gg\
16D/LL	.
16C#X/	.
16D/JJ	.
.	16qqaa/LL
.	16qqgg/JJ
4DD/	4ff#X\
=108	=108
2CC/ 2C	16ee\LL
.	16ff#X\
.	16cc\
.	16ff#\JJ
.	16cc\LL
.	16ccc\
.	16aa\
.	16ff#X\JJ
=109	=109
2CC/ 2C	16gg\LL
.	16ff#X\
.	16gg\
.	16aa\JJ
.	16bb\LL
.	16ff#\
.	16gg\
.	16dd\JJ
=110	=110
2CC/ 2C	16ee\LL
.	16ff#X\
.	16cc\
.	16ff#\JJ
.	16cc\LL
.	16ccc\
.	16aa\
.	16ff#\JJ
=111	=111
2CC/ 2C	16gg\LL
.	16ff#\
.	16gg\
.	16aa\JJ
.	16bb\LL
.	16ff#\
.	16gg\
.	16dd\JJ
=112	=112
2CC/ 2C	16ee\LL
.	16ff#\
.	16cc\
.	16ff#\JJ
.	16cc\LL
.	16ccc\
.	16aa\
.	16ff#\JJ
!!LO:PB:g=original
=113	=113
4BBB/ 4BB	16gg\LL
.	16ff#\
.	16gg\
.	16aa\JJ
!LO:N:vis=8	!
16r	4bb\
16G\LL	.
16F#X\	.
16G\JJ	.
=114	=114
4GG/	16bb\LL
.	16aa\
.	16bb\
.	16ccc\JJ
!LO:TX:a:t=P:problem=mixed beam	!
16GG/LL	4ddd\
16G\	.
16F#X\	.
16G\JJ	.
=115	=115
4C/	16aa\LL
.	16ccc\
.	16eee\
.	16ccc\JJ
4D/	16bb\LL
.	16aa\
.	16gg\
.	16ff#\JJ
=116	=116
4GG/ 4G	24gg\LL
.	24dd\
.	24een\JJ
.	24ff#X\LL
.	24gg\
.	24aa\JJ
4r	24bb\LL
.	24bbn\
.	24ccc#X\JJ
.	24ddd\LL
.	24bb\
.	24gg\JJ
=117	=117
8r	24eee\LL
.	24ccc\
.	24aa\JJ
8F#\L 8A 8c	24eee\LL
.	24ccc\
.	24aa\JJ
8F#\ 8A 8c	24eee\LL
.	24ccc\
.	24aa\JJ
8F#\J 8A 8c	24eee\LL
.	24ccc\
.	24aa\JJ
=118	=118
4G\ 4B	24bb\LL
.	24aa\
.	24bb\JJ
.	24ddd\LL
.	24bb\
.	24aa\JJ
4G\ 4B	24gg\LL
.	24ff#X\
.	24gg\JJ
.	24bb\LL
.	24aa\
.	24gg\JJ
!!LO:LB:g=original
=119	=119
8r	24ff#X\LL
.	24ee\
.	24cc\JJ
8E/L	24ff#\LL
.	24ee\
.	24cc\JJ
8C/	24ff#\LL
.	24ee\
.	24cc\JJ
8AA/J	24ff#\LL
.	24ee\
.	24cc\JJ
=120	=120
!	!LO:N:vis=12
4FF#X/	24r
.	24ee/LL
.	24cc/JJ
.	24aa\LL
.	24ee\
.	24cc\JJ
!	!LO:N:vis=12
4F#X\ 4A	24r
.	24ee\LL
.	24cc\JJ
.	24aa\LL
.	24ee\
.	24cc\JJ
=121	=121
!	!LO:N:vis=12
4F#\ 4A	24r
.	24ee\LL
.	24cc\JJ
.	24aa\LL
.	24ee\
.	24cc\JJ
!	!LO:N:vis=12
4F#\ 4A	24r
.	24ee\LL
.	24cc\JJ
.	24aa\LL
.	24ee\
.	24cc\JJ
=122	=122
8G\L	24bb\LL
.	24ddd\
.	24bb\JJ
8B\J	24gg\LL
.	24bb\
.	24gg\JJ
8c\L	24aa\LL
.	24ccc\
.	24aa\JJ
8d\J	24ff#\LL
.	24aa\
.	24ff#\JJ
=123	=123
2GG/ 2G	16gg\LL
.	16ff#\
.	16gg\
.	16aa\JJ
.	16bb\LL
.	16bbn\
.	16ccc\
.	16ccc#X\JJ
!!LO:LB:g=original
=124	=124
2r	16ddd\LL
.	16ddd\
.	16ccc#X\
.	16cccn\JJ
.	16bbn\LL
.	16bb-X\
.	16aa\
.	16gg\JJ
=125	=125
2r	16ff#X\LL
.	16ffn\
.	16ee\
.	16ee-X\JJ
.	16dd\LL
.	16dd\
.	16gg\
.	16bb-X\JJ
=126	=126
8G\L 8B	8.ddd\L
8d\J	.
.	16bb\Jk
*rep	*
.	16qqaa/
8G\L 8B	16gg\LL
.	16ff#\
8d\J	16gg\
.	16bb\JJ
*Xrep	*
=127	=127
8A\L 8c	16aa\LL
.	16ff#\J
!	!LO:N:vis=16
8d\J	8dd\J
!	!LO:N:vis=8
*rep	*
8A\L 8c	16r
.	16dd\LL
8d\J	16ee\
.	16ff#\JJ
*Xrep	*
=128	=128
8G\L 8B	16gg\LL
.	16ff#\
8d\J	16gg\
.	16aa\JJ
8G\L 8B	16bb\LL
.	16gg\
8d\J	16aa\ 16ccc
.	16bb\JJ
=129	=129
*^	*
8G/L	4D\	16bb\LL
.	.	16aa\J
8F#/J	.	8aa\J
!	!	!LO:N:vis=8
4d\	4ryy	16r
.	.	16dd\LL
.	.	16gg\
.	.	16bb\JJ
*v	*v	*
=130	=130
.	16qqdd/
8G\L 8B	8.ddd\L
8d\J	.
.	16bb\Jk
*rep	*
8G\L 8B	16gg\LL
.	16ff#\
8d\J	16gg\
.	16bb\JJ
*Xrep	*
!!LO:LB:g=original
=131	=131
8A\L 8c	16aa\LL
.	16ff#\J
8d\J	8dd\J
!	!LO:N:vis=8
*rep	*
8A\L 8c	16r
.	16dd\LL
8d\J	16ee\
.	16ff#\JJ
*Xrep	*
=132	=132
8B\L	16gg\LL
.	16ee\
8c\J	16ccc\
.	16aa\JJ
!LO:TX:a:t=P:problem=mixed beam	!m
8d\L	16bb\LL
.	16gg\
8D/J	16aa\
.	16ff#\JJ
=133	=133
8r	16aa\LL
.	16gg\J
8G\	8gg\J
!	!LO:N:vis=8
4GG/	16r
.	16d/LL
.	16g/
.	16b/JJ
=134	=134
16GG/LL	8.dd\L
16D/	.
16BB/	.
16D/JJ	16b\Jk
*rep	*
16GG/LL	16g/LL
16D/	16f#/
16BB/	16g/
16D/JJ	16b/JJ
*Xrep	*
=135	=135
16AA/LL	16a/LL
16D/	16f#/J
16C/	8d/J
16D/JJ	.
!	!LO:N:vis=8
*rep	*
16AA/LL	16r
16D/	16d/LL
16C/	16e/
16D/JJ	16f#/JJ
*Xrep	*
=136	=136
16GG/LL	16g/LL
16D/	16f#/
16BB/	16g/
16D/JJ	16a/JJ
*rep	*
16GG/LL	16b/LL
16D/	16g/
16BB/	16cc/
16D/JJ	16a/JJ
*Xrep	*
=137	=137
16GG/LL	16b/LL
16D/	16a/J
16BB/	8a/J
16D/JJ	.
!LO:TX:a:t=P:4\left:problem	!
!	!LO:N:vis=8
4DD/	16r
.	16d/LL
.	16g/
.	16b/JJ
=138	=138
.	16qqd
16GG/LL	8.dd\L
16D/	.
16BB/	.
16D/JJ	16b\Jk
*rep	*
.	16qqa/
16GG/LL	16g/LL
16D/	16f#/
16BB/	16g/
16D/JJ	16b/JJ
*Xrep	*
=139	=139
16AA/LL	16a/LL
16D/	16f#/J
16C/	8d/J
16D/JJ	.
!	!LO:N:vis=8
*rep	*
16AA/LL	16r
16D/	16d/LL
16C/	16e/
16D/JJ	16f#/JJ
*Xrep	*
!!LO:LB:g=original
=140	=140
8BB/L	16g/LL
.	16e/
8C/J	16cc/
.	16a/JJ
8D/L	16b/LL
.	16g/
8DD/J	16a/
.	16f#/JJ
=141	=141
8r	16a/LL
.	16g/J
8G\	8g/J
4GG/	4r
=142	=142
*	*^
!	!LO:TX:a:t=P:problem=mixed beam	!
!	!LO:TX:a:t=P:problem=nieczytelny zapis	!
8r	8a\L 8ee\	4f#\
8e\L	8g/J 8b/ 8ee/	.
8B\	4ee\ 4gg	4b\
8G\J	.	.
*	*v	*v
=143	=143
8E\L	4gg\ 4bb
8e\J	.
.	16qqee
8r	8.eee\L
8GG#X\ 8G#X	.
.	16ddd\Jk
=144	=144
4AA\ 4A	16ddd\LL
.	16ccc\
.	16ccc\
.	16bb\JJ
4BB\ 4B	16aa\LL
.	16ff#\
.	16bb\
.	16aa\JJ
=145	=145
4E\	16aa\LL
.	16gg\
.	16ff#\
.	16ee\JJ
8Gn\L	4ee\
8B\J	.
=146	=146
8A\L	8.ee\L
8E\J	.
.	16gg\Jk
8A\L	16ff#\LL
.	16aa\
8B\J	16gg\
.	16ff#\JJ
=147	=147
4E\	16ee\LL
.	16bb\
.	16gg\
.	16ee\JJ
8A\L	16ff#\LL
.	16aa\
8B\J	16gg\
.	16ff#\JJ
=148	=148
4E\	16ee\LL
.	16ff#\
.	16gg\
.	16aa\JJ
8G\L	16bb\LL
.	16gg\
8A\J	16ee\
.	16ccc\JJ
=149	=149
8B\L	4ee\
8F#\J	.
.	16qqff#/LL
.	16qqee/JJ
4BB/	4dd#X\
!!LO:PB:g=original
=150	=150
8r	4G/ 4B 4e
!LO:TX:a:t=P:problem=mixed beam	!
8E\L	.
8BB/	4e/ 4g
8GG/J	.
=151	=151
!LO:TX:a:t=P:problem=mixed beam	!
!	!LO:N:vis=4.
8EE/L	4g/ 4b
8E\J	.
.	8qqe/
8r	8.ee\L
8G#X\	.
.	16dd\Jk
=152	=152
4A\	16dd\LL
.	16cc\
.	16b\
.	16a\JJ
4B\	16g/LL
.	16f#/
.	16b/
.	16a/JJ
=153	=153
4EE/ 4E	16a/LL
.	16g/
.	16f#/
.	16e/JJ
8BB/L	4f#/
8GG/J	.
=154	=154
!LO:TX:a:t=P:problem=mixed beam	!
8EE/L	8.e/L
8E\J	.
.	16g/Jk
8D#X\L	16f#/LL
.	16a/
8BB\J	16g/
.	16f#/JJ
=155	=155
4EE/ 4E	16e/LL
.	16b/
.	16g/
.	16e/JJ
8D#X/L	16f#/LL
.	16a/
8BB/J	16g/
.	16f#/JJ
=156	=156
4EE/ 4E	16e/LL
.	16f#/
.	16g/
.	16a/JJ
8G\L	16b/LL
.	16g/
8A\J	16e/
.	16cc/JJ
=157	=157
8B\L	4f#/
8F#\J	.
.	16qqf#/LL
.	16qqe/JJ
4BB/	4d#X/
=158	=158
8r	4dn/
8G\ 8B	.
4G\ 4B	16d/LL
.	16g/
.	16b/
.	16g/JJ
=159	=159
4c\	16f#/LL
.	16e/JJ
.	4e/
4B\	.
.	16f#/LL
.	16g#X/JJ
!!LO:LB:g=original
=160	=160
4c\	16a/LL
.	16b/
.	16cc/
.	16b/JJ
8A\L	16cc/LL
.	16a/
8B\J	16g/
.	16f#/JJ
=161	=161
8r	4f#/ 4a
8G\	.
4GG/	8g/
.	8r
=162	=162
2G\	8g/L 8b
.	8g/ 8b
.	8a/ 8cc
.	8g/J 8b
=163	=163
8r	4g/ 4b
8B\	.
8r	4f#/ 4a
8d\	.
=164	=164
4e\	8g/L
.	8g/
4E\	8f#/ 8a
.	8e/J 8g
=165	=165
8r	4e/ 4g
!LO:TX:a:t=P:problem=mixed beam	!
8BB/L	.
8B\	4d#X/ 4f#
8A\J	.
=166	=166
4G\	16e/LL
.	16g/
.	16b/
.	16ee/JJ
4E\	16b\LL
.	16ee\
.	16gg\
.	16bb\JJ
=167	=167
4D#X\	16aa\LL
.	16bb\
.	16gg\
.	16bb\JJ
4BB\	16aa\LL
.	16bb\
.	16ff#\
.	16bb\JJ
=168	=168
4E\	16gg\LL
.	16bb\
.	16aa\
.	16gg\JJ
4EE/	16ff#\LL
.	16ee\
.	16gg\
.	16bb\JJ
!!LO:LB:g=original
=169	=169
4D#X\	16aa\LL
.	16bb\
.	16ff#\
.	16bb\JJ
4BB\	16aa\LL
.	16bb\
.	16ff#\
.	16bb\JJ
=170	=170
8E\L	16aa\LL
.	16gg\
8G\J	16ff#\
.	16ee\JJ
8A\L	16gg\LL
.	16ff#\
8B\J	16ee\
.	16dd#X\JJ
=171	=171
8A\L	8ee\L
8G\J	16ee\L
.	16eee\JJ
8r	16dd#X\LL
!	!LO:SIC:s=ddd#
.	16ddd\
8G#X\	16ddn\
.	16ddd\JJ
=172	=172
!	!LO:SIC:s=cc#
8A\L	8cc\L 8ccc#X
8F#\	8ccn\ 8cccn
8Gn\	8b\ 8bb
8D\J	8a\J 8aa
=173	=173
2r;>	4r;>
!	!LO:N:vis=8
.	16r
.	16dd\LL
.	16gg\
.	16bb\JJ
=174	=174
.	16qqdd/
8G\L 8B	8.ddd\L
8d\J	.
.	16bb\Jk
*rep	*
.	16qqaa/
8G\L 8B	16gg\LL
.	16ff#\
8d\J	16gg\
.	16bb\JJ
*Xrep	*
=175	=175
8A\L 8c	16aa\LL
.	16ff#\J
8d\J	8dd\J
!	!LO:N:vis=8
*rep	*
8A\L 8c	16r
.	16dd\LL
8d\J	16ee\
.	16ff#\JJ
*Xrep	*
=176	=176
.	16qqaa/
8G\L 8B	16gg\LL
.	16ff#\
8d\J	16gg\
.	16aa\JJ
8G\L 8B	16bb\LL
.	16aa\
8d\J	16ccc\
.	16bb\JJ
!!LO:LB:g=original
=177	=177
*^	*
8G/L	4D\	16bb\LL
.	.	16aa\J
8F#/J	.	8gg\J
!	!	!LO:N:vis=8
4d\	4ryy	16r
.	.	16dd\LL
.	.	16gg\
.	.	16bb\JJ
*v	*v	*
=178	=178
.	16qqdd/
8G\L 8B	8.ddd\L
8d\J	.
.	16bb\Jk
*rep	*
8G\L 8B	16gg\LL
.	16ff#\
8d\J	16gg\
.	16bb\JJ
*Xrep	*
=179	=179
8A\L 8c	16aa\LL
.	16ff#\J
8d\J	8dd\J
!	!LO:N:vis=8
*rep	*
8A\L 8c	16r
.	16dd\LL
8d\J	16ee\
.	16ff#\JJ
*Xrep	*
=180	=180
8B\L	16gg\LL
.	16ee\
8c\J	16ccc\
.	16aa\JJ
8d\L	16bb\LL
.	16gg\
8D\J	16aa\
.	16ff#\JJ
=181	=181
8r	16aa\LL
.	16gg\J
8G\	8gg\J
!	!LO:N:vis=8
4GG/	16r
.	16d/LL
.	16g/
.	16b/JJ
=182	=182
.	16qqd/
16GG/LL	8.dd\L
16D/	.
16BB/	.
16D/JJ	16b\Jk
*rep	*
.	16qqa/
16GG/LL	16g/LL
16D/	16f#/
16BB/	16g/
16D/JJ	16b/JJ
*Xrep	*
=183	=183
16AA/LL	16a/LL
16D/	16f#/J
16C/	8d/J
16D/JJ	.
!	!LO:N:vis=8
*rep	*
16AA/LL	16r
16D/	16d/LL
16C/	16e/
16D/JJ	16f#/JJ
*Xrep	*
=184	=184
.	16qqa/
16GG/LL	16g/LL
16D/	16f#/
16BB/	16g/
16D/JJ	16a/JJ
*rep	*
16GG/LL	16b/LL
16D/	16g/
16BB/	16cc/
16D/JJ	16b/JJ
*Xrep	*
=185	=185
16FF#/LL	16b/LL
16D/	16a/J
16AA/	8a/J
16D/JJ	.
!	!LO:N:vis=8
4DD/	16r
.	16d/LL
.	16g/
.	16b/JJ
!!LO:LB:g=original
=186	=186
.	16qqd/
16GG/LL	8.dd\L
16D/	.
16BB/	.
16D/JJ	16b\Jk
*rep	*
.	16qqa/
16GG/LL	16g/LL
16D/	16f#/
16BB/	16g/
16D/JJ	16b/JJ
*Xrep	*
=187	=187
16AA/LL	16a/LL
16D/	16f#/J
16C/	8d/J
16D/JJ	.
!	!LO:N:vis=8
*rep	*
16AA/LL	16r
16D/	16d/LL
16C/	16e/
16D/JJ	16f#/JJ
*Xrep	*
=188	=188
8BB/L	16g/LL
.	16e/
8C/J	16cc/
.	16a/JJ
8D/L	16b/LL
.	16g/
8DD/J	16a/
.	16f#/JJ
=189	=189
8r	16a/LL
.	16g/J
8G\	8g/J
4GG/	4r
=190	=190
*Xtuplet	*
24G\LL	8r
24B\	.
24d\JJ	.
8r	24g/LL
.	24b/
.	24dd/JJ
4G\	24gg\LL
.	24bb\
.	24aa\JJ
.	24gg\LL
.	24ff#\
.	24ee\JJ
=191	=191
2G\	24dd\LL
.	24gg\
.	24ff#\JJ
.	24ee\LL
.	24dd\
.	24cc\JJ
.	24b\LL
.	24ee\
.	24dd\JJ
.	24cc\LL
.	24b\
.	24a\JJ
=192	=192
8r	24g/LL
.	24e/
.	24d/JJ
24c\LL	8r
24B\	.
24A\JJ	.
24G\LL	8r
24B\	.
24d\JJ	.
8r	24g/LL
.	24b/
.	24dd/JJ
=193	=193
24d>\LL	8rdd
24f#>\	.
24a>\JJ	.
8rg>	24dd/LL
.	24ff#/
.	24aa/JJ
4d\	24ddd\LL
.	24ccc#X\
.	24bb\JJ
.	24aa\LL
.	24gg\
.	24ff#\JJ
!!LO:PB:g=original
=194	=194
2d\	24bb\LL
.	24aa\
.	24gg\JJ
.	24ff#\LL
.	24ee\
.	24dd\JJ
.	24cc#X\LL
.	24b\
.	24a\JJ
.	24g/LL
.	24f#/
.	24e/JJ
=195	=195
24d>\LL	8rdd
24f#>\	.
24a>\JJ	.
8rg>	24dd/LL
.	24ff#/
.	24aa/JJ
4r	24ddd\LL
.	24aa\
.	24ff#\JJ
.	24aa\LL
.	24ff#\
.	24dd\JJ
=196	=196
!	!LO:N:vis=12
8d>\	24rff
.	24cc#X/LL
.	24dd/JJ
24a>\LL	8rff
24f#>\	.
24d>\JJ	.
!	!LO:N:vis=12
8e>\	24rff
.	24dd#X/LL
.	24ee/JJ
24b>\LL	8rff
24g>\	.
24e>\JJ	.
=197	=197
!	!LO:N:vis=12
8f#>\	24rff
.	24ee#X/LL
.	24ff#/JJ
24dd>\LL	8rccc
24a>\	.
24f#>\JJ	.
!	!LO:N:vis=12
8g>\	24raa
.	24ff#/LL
.	24gg/JJ
24dd>\LL	8rccc
24b>\	.
24g>\JJ	.
=198	=198
8a>\	24raa
.	24dd/LL
.	24ff#/JJ
8ryy	24aa\LL
.	24ff#\
.	24dd\JJ
4A\	24gg\LL
.	24ff#\
.	24ee\JJ
.	24dd\LL
.	24cc#X\
.	24b\JJ
!!LO:LB:g=original
=199	=199
4A\	24a/LL
.	24b/
.	24a/JJ
.	24g/LL
.	24f#/
.	24e/JJ
4D\	4d/
=200	=200
8r	24dd\LL
.	24cc\
.	24a\JJ
8F#\L	24dd\LL
.	24cc\
.	24a\JJ
8D\	24dd\LL
.	24cc\
.	24a\JJ
8F#\J	24dd\LL
.	24cc\
.	24a\JJ
=201	=201
!	!LO:N:vis=12
4G\	24r
.	24b\LL
.	24g\JJ
.	24dd\LL
.	24b\
.	24g\JJ
4GG/	24gg\LL
.	24dd\
.	24b\JJ
.	24dd\LL
.	24b\
.	24g\JJ
=202	=202
8r	24dd\LL
.	24cc\
.	24a\JJ
8F#\L	24dd\LL
.	24cc\
.	24a\JJ
8D\	24dd\LL
.	24cc\
.	24a\JJ
8F#\J	24dd\LL
.	24cc\
.	24a\JJ
=203	=203
!	!LO:N:vis=12
4G\	24r
.	24b\LL
.	24g\JJ
.	24dd\LL
.	24b\
.	24g\JJ
4GG/	24gg\LL
.	24dd\
.	24b\JJ
.	24dd\LL
.	24b\
.	24g\JJ
=204	=204
2C/	24ee\LL
.	24ff#\
.	24gg\JJ
.	24ff#\LL
.	24ee\
.	24dd\JJ
.	24cc\LL
.	24dd\
.	24ee\JJ
.	24dd\LL
.	24cc\
.	24b\JJ
!!LO:LB:g=original
=205	=205
4C/	24a/LL
.	24b/
.	24cc/JJ
.	24b/LL
.	24a/
.	24g/JJ
8D/L	24f#/LL
.	24a/
.	24dd/JJ
8C/J	24ff#\LL
.	24ee\
.	24dd\JJ
=206	=206
8BB/L	24ff#\LL
.	24gg\
.	24dd\JJ
8C/J	24ee\LL
.	24cc\
.	24a\JJ
8D\L	24dd\LL
.	24b\
.	24g\JJ
8D\J	24a/LL
.	24g/
.	24a/JJ
=207	=207
4GG/	24b\LL
.	24g\
.	24b\JJ
.	24b\LL
.	24cc\
.	24dd\JJ
4r	24ee\LL
.	24ff#\
.	24gg\JJ
.	24ff#\LL
.	24ee\
.	24dd\JJ
=208	=208
8r	24ee\LL
.	24dd\
.	24cc\JJ
8F#\L	24ee\LL
.	24dd\
.	24cc\JJ
8D\	24ee\LL
.	24dd\
.	24cc\JJ
8F#\J	24ee\LL
.	24dd\
.	24cc\JJ
=209	=209
!	!LO:N:vis=12
4G\	24r
.	24b\LL
.	24g\JJ
.	24dd\LL
.	24b\
.	24g\JJ
4GG/	24gg\LL
.	24dd\
.	24b\JJ
.	24dd\LL
.	24b\
.	24g\JJ
=210	=210
8r	24ee\LL
.	24dd\
.	24cc\JJ
8F#\L	24ee\LL
.	24dd\
.	24cc\JJ
8D\	24ee\LL
.	24dd\
.	24cc\JJ
8F#\J	24ee\LL
.	24dd\
.	24cc\JJ
!!LO:LB:g=original
=211	=211
!	!LO:N:vis=12
4G\	24r
.	24b/LL
.	24g/JJ
.	24dd\LL
.	24b\
.	24g\JJ
4GG/	24gg\LL
.	24dd\
.	24b\JJ
.	24dd\LL
.	24b\
.	24g\JJ
=212	=212
24rCCyy	24ee/
24dd>\LL	24rcccyy
24ee>\JJ	24rcccyy
24rCCyy	24dd/
24b>\LL	24rcccyy
24dd>\JJ	24rcccyy
24rCCyy>	24ee/
24cc>\LL	24rcccyy
24ee>\JJ	24rcccyy
24rCCyy	24cc/
24a>\LL	24rcccyy
24cc>\JJ	24rcccyy
=213	=213
24rCCyy	24dd/
24b>\LL	24rcccyy
24dd>\JJ	24rcccyy
24rCCyy	24cc/
24a>\LL	24rcccyy
24cc>\JJ	24rcccyy
24rCCyy	24dd/
24b>\LL	24rcccyy
24dd>\JJ	24rcccyy
24rCCyy	24b/
24g>\LL	24rcccyy
24b>\JJ	24rcccyy
=214	=214
24rCCyy	24cc/
24a>\LL	24rcccyy
24cc>\JJ	24rcccyy
24rCCyy	24b/
24g>\LL	24rcccyy
24b>\JJ	24rcccyy
24rCCyy	24cc/
24a>\LL	24rcccyy
24cc>\JJ	24rcccyy
24rCCyy	24a/
24f#>\LL	24rcccyy
24b>\JJ	24rcccyy
=215	=215
.	16qqdd/
8G\L 8B	8.ddd\L
8d\J	.
.	16bb\Jk
*rep	*
8G\L 8B	16gg\LL
.	16ff#\
8d\J	16gg\
.	16bb\JJ
*Xrep	*
=216	=216
8A\L 8c	16aa\LL
.	16ff#\J
8d\J	8dd\J
!	!LO:N:vis=8
*rep	*
8A\L 8c	16r
.	16dd\LL
8d\J	16ee\
.	16ff#\JJ
*Xrep	*
=217	=217
.	16qqaa/
8G\L 8B	16gg\LL
.	16ff#\
8d\J	16gg\
.	16aa\JJ
*rep	*
8G\L 8B	16bb\LL
.	16gg\
8d\J	16ccc\
.	16bb\JJ
*Xrep	*
!!LO:LB:g=original
=218	=218
*^	*
8G/L	4D\	16bb\LL
.	.	16aa\J
8F#/J	.	8aa\J
!	!	!LO:N:vis=8
4d\	4ryy	16r
.	.	16dd\LL
.	.	16gg\
.	.	16bb\JJ
*v	*v	*
=219	=219
.	16qqdd/
8G\L 8B	8.ddd\L
8d\J	.
.	16bb\Jk
*rep	*
8G\L 8B	16gg\LL
.	16ff#\
8d\J	16gg\
.	16bb\JJ
*Xrep	*
=220	=220
8A\L 8c	16aa\LL
.	16ff#\J
8d\J	8dd\J
!	!LO:N:vis=8
*rep	*
8A\L 8c	16r
.	16dd\LL
8d\J	16ee\
.	16ff#\JJ
*Xrep	*
=221	=221
!LO:TX:a:t=P:problem=mixed beam	!
8B\L	16gg\LL
.	16ee\
8c\	16ccc\
.	16aa\JJ
8d\	16bb\LL
.	16gg\
8D/J	16aa\
.	16ff#\JJ
=222	=222
8r	16aa\LL
.	16gg\J
8G\	8gg\J
!	!LO:N:vis=8
4GG/	16r
.	16d/LL
.	16g/
.	16b/JJ
=223	=223
.	16qqd/
16GG/LL	8.dd\L
16D/	.
16BB/	.
16D/JJ	16b\Jk
*rep	*
16GG/LL	16g/LL
16D/	16f#/
16BB/	16g/
16D/JJ	16b/JJ
*Xrep	*
=224	=224
16AA/LL	16a/LL
16D/	16f#/J
16C/	8d/J
16D/JJ	.
!	!LO:N:vis=8
*rep	*
16AA/LL	16r
16D/	16d/LL
16C/	16e/
16D/JJ	16f#/JJ
*Xrep	*
=225	=225
16GG/LL	16g/LL
16D/	16f#/
16BB/	16g/
16D/JJ	16a/JJ
*rep	*
16GG/LL	16b/LL
16D/	16g/
16BB/	16cc/
16D/JJ	16b/JJ
*Xrep	*
=226	=226
16FF#/LL	16b/LL
16D/	16a/J
16AA/	8a/J
16D/JJ	.
!LO:TX:a:t=P:4\left:problem	!LO:N:vis=8
4DD/	16r
.	16d/LL
.	16g/
.	16b/JJ
!!LO:PB:g=original
=227	=227
16GG/LL	8.dd\L
16D/	.
16BB/	.
16D/JJ	16b\Jk
*rep	*
.	16qqa/
16GG/LL	16g/LL
16D/	16f#/
16BB/	16g/
16D/JJ	16b/JJ
*Xrep	*
=228	=228
16AA/LL	16a/LL
16D/	16f#/J
16C/	8d/J
16D/JJ	.
!	!LO:N:vis=8
*rep	*
16AA/LL	16r
16D/	16d/LL
16C/	16e/
16D/JJ	16f#/JJ
*Xrep	*
=229	=229
8BB/L	16g/LL
.	16e/
8C/J	16cc/
.	16a/JJ
8D/L	16b/LL
.	16g/
8DD/J	16a/
.	16f#/JJ
=230	=230
8r	16a/LL
.	16g/J
8G\	8g/J
4GG/	4r
=231	=231
!LO:TX:a:t=P:problem=mixed beam	!
8GG/L	8g/
8G\J	24gg\LL
.	24bb\
.	24gg\JJ
8E\L	24ee\LL
.	24gg\
.	24ee\JJ
8C\J	24cc\LL
.	24ee\
.	24cc\JJ
=232	=232
!LO:TX:a:t=P:problem=mixed beam	!
8AA/L	8a/
8A\J	24a/LL
.	24cc/
.	24a/JJ
8F#\L	24f#/LL
.	24a/
.	24f#/JJ
8D\J	24d/LL
.	24f#/
.	24d/JJ
=233	=233
!	!LO:TX:a:t=P:problem=mixed beam
8D\L	8A/L 8c/
8D\	8cc\ 8aa\
8F#\	8cc\ 8aa\
8A\J	8cc\J 8aa\
=234	=234
4C;<\ 4F# 4A	4cc;>\ 4aa
!	!LO:N:vis=8
4r	16r
.	16dd\LL
.	16gg\
.	16bb\JJ
=235	=235
8G\L 8B	8.ddd\L
8d\J	.
.	16bb\Jk
*rep	*
8G\L 8B	16gg\LL
.	16ff#\
8d\J	16gg\
.	16bb\JJ
*Xrep	*
!!LO:LB:g=original
=236	=236
8A\L 8c	16aa\LL
.	16ff#\J
8d\J	8dd\J
!	!LO:N:vis=8
*rep	*
8A\L 8c	16r
.	16dd\LL
8d\J	16ee\
.	16ff#\JJ
*Xrep	*
=237	=237
4G\ 4B	16gg\LL
.	16aa\
.	16bb\
.	16ccc\JJ
4r;>	8ddd\L
.	8eee\J
=238	=238
4d\	4cc\ 4ff#
4e\	4b\ 4gg
=239	=239
4c\	4cc\ 4aa
4d\	4cc\ 4ff#
=240	=240
8G\L 8B	8.ddd\L
8d\J	.
.	16bb\Jk
*rep	*
8G\L 8B	16gg\LL
.	16ff#\
8d\J	16gg\
.	16bb\JJ
*Xrep	*
=241	=241
8A\L 8c	16aa\LL
.	16ff#\J
8d\J	8dd\J
!	!LO:N:vis=8
*rep	*
8A\L 8c	16r
.	16dd\LL
8d\J	16ee\
.	16ff#\JJ
*Xrep	*
=242	=242
4G\ 4B	16gg\LL
.	16aa\
.	16bb\
.	16ccc\JJ
4r	8ddd\L
.	8eee\J
=243	=243
4d\	4cc\ 4ff#
4e\	4b\ 4gg
=244	=244
4c\	4cc\ 4aa
4d\	4cc\ 4ff#
=245	=245
16G\LL	4b\ 4gg
16d\	.
16B\	.
16d\JJ	.
16E\LL	8r
16B\	.
16G\	8b\ 8gg
16B\JJ	.
=246	=246
16CC/LL	4cc\ 4aa
16C/	.
16BB/	.
16C/JJ	.
16DD/LL	4a\ 4cc 4ff#
16D/	.
16C#X/	.
16D/JJ	.
=247	=247
16G\LL	4b\ 4gg
16d\	.
16B\	.
16d\JJ	.
16E\LL	8r
16B\	.
16G\	8b\ 8gg
16B\JJ	.
!!LO:LB:g=original
=248	=248
16CC/LL	4cc\ 4aa
16C/	.
16BB/	.
16C/JJ	.
16DD/LL	4a\ 4cc 4ff#
16D/	.
16C#X/	.
16D/JJ	.
=249	=249
!LO:TX:a:t=P:problem=mixed beam	!
8GG/L	8b\L 8gg
8G\	8b\ 8gg
8D\	8b\ 8gg
8BB\J	8b\J 8gg
=250	=250
4GG/	4b\ 4gg
4G\	4b\ 4gg
=251	=251
4GG/	4b\ 4gg
4r	4r
==	==
*-	*-
!!!system-decoration: {(s1,s2)}
!!!RDF**kern: > = above
!!!RDF**kern: < = below
!!!EED: Mateusz Mrugas
!!!EEV: 2020-11-22
!!!ENC: Marcin Jachim
!!!END: 2020-06-15
!!!YEC: Copyright 2022 Narodowy Instytut Fryderyka Chopina (https://polishscores.org)
!!!YEM: License CC-BY-4.0 (https://creativecommons.org/licenses/by/4.0)
